X:1
T:Bonsoir, matre de maison
C:Andro, Bretagne, fichier ABC par Bernard Loffet
L:1/8
Q:350
M:2/2
K:C
|: [c2A,2][cA,]c [B2G,2]G,B | [B2G,2][G2G,2] [A2A,2]A,2 | [c2A,2][cA,]c [B2G,2]G,B | [B2G,2][G2G,2] [A2A,2]A,2 :|: [A2A,2][B2A,2] [c2A,2][c2A,2] | \
 [B2G,2][B2G,2] [B2C,2][B2C,2] | [c2A,2][BA,]c [A2F,2]F,A | [B2G,2][G2G,2] [E2E,2]E,2 | [A2A,2][B2A,2] [c2A,2][c2A,2] | [B2G,2][B2G,2] [B2C,2][B2C,2] | \
 [c2A,2][BA,]c [A2F,2]F,A | [B2G,2][G2G,2] [A2A,2]A,2 :| \
Z:Created with TablEdit http://www.tabledit.com/ by Bernard Loffet
